X:12
T:Cooley's
Z: id:dc-hornpipe-11
M:C|
L:1/8
K:G Major
(3def|gGG2 EGDC|B,G,B,D GBdg|e2ce d2Bd|cAAG A2 (3def|!
gGG2 EGDC|B,G,B,D GBdg|ecAG FAdc|BGGF G2:|!
GA|BGBd edBd|g2bg edBd|gfge dBGA|BAAG Ad^cd|!
BGG2 EGcE|EGcE DGBd|gfge dBcA|BGGF G2:|!

